X:1
T:Verlass micht nicht
T:Franz Abt
T:Christian Hohlfeldt
T:Verlass micht nicht
T:CPDL   —   Creative Commons Attribution Non Commercial 3.0
T:CPDL   —   Creative Commons Attribution Non Commercial 3.0
C:Franz Abt
Z:Christian Hohlfeldt
Z:CPDL   —   Creative Commons Attribution Non Commercial 3.0
%%score [ ( 1 2 ) 3 4 ]
L:1/8
Q:1/4=80
M:3/4
K:C
V:1 treble nm="Sopran\nAlt"
V:2 treble 
V:3 treble-8 nm="Tenor"
V:4 bass nm="Bass"
V:1
!p!"^Etwas langsam" G2 | !>!e4 B2 | c4"^" d2 |!<(! e3!<)! g!>(! fd!>)! |!p!!>(! c2!>)! B2 z d | %5
w: 1\-3. Ver-|lass mich|nicht! o|du, zu dem ich|fle- he, mein|
w: ||* von|Lei- den oft um-|ge- ben, kann|
w: ||* hilf,|dass ich al- les|tra- ge, und|
 !>!d4 ^F2 | G3!<(! G A!<)!B |!mf! c4 e2 |!>(! e2 d2!>)! z2 |!f! g2 d2 B2 | A4 e2 | %11
w: Au- ge|blickt zu dei- ner|heil- gen|Hö- he,|dir traut mein|Herz mit|
w: mei- nen|Mut nur dei- ne|Kraft be-|le- ben;|sei du mein|Stab, wenn|
w: naht sich|mir der A- bend|mei- ner|Ta- ge,|dann leuch- te|mir dein|
 d3 A!>(! c!p!B |"^" G2!>)! z2!p! G2 | f4 e2 | A4 A2 |!f!!>(! d4 e2!>)! | !fermata!c2 z2 |] %17
w: Kind- es- zu- ver-|sicht. Ver-|lass mich|nicht, ver-|lass mich|nicht!|
w: Stär- ke mir ge-|bricht. *|||||
w: Va- ter- an- ge-|sicht. *|||||
V:2
 G2 | G4 F2 | E4 G2 | G3 _B AA | G2 G2 x G | A4 D2 | D3 G ^FG | G4 G2 | G2 G2 x2 | G2 G2 G2 | %10
 G4 G2 | ^F3 F FF | D2 x2 D2 | G4 G2 | F4 F2 | F4 G2 | E2 x2 |] %17
V:3
!p! G2 | !>!G4 G2 | G4"^" f2 |!<(! e3!<)! c!>(! cf!>)! |!p!!>(! e2!>)! d2 z B | !>!c4 c2 | %6
w: 1\-3. Ver-|lass mich|nicht! o|du, zu dem ich|fle- he, mein|Au- ge|
w: ||* von|Lei- den oft um-|ge- ben, kann|mei- nen|
w: ||* hilf,|dass ich al- les|tra- ge, und|naht sich|
 B3!<(! d d!<)!d |!mf! c4 c2 |!>(! c2 B2!>)! z2 |!f! d2 d2 d2 | e4 A2 | A3 c!>(! e!p!d | %12
w: blickt zu dei- ner|heil- gen|Hö- he,|dir traut mein|Herz mit|Kind- es- zu- ver-|
w: Mut nur dei- ne|Kraft be-|le- ben;|sei du mein|Stab, wenn|Stär- ke mir ge-|
w: mir der A- bend|mei- ner|Ta- ge,|dann leuch- te|mir dein|Va- ter- an- ge-|
"^" B2!>)! z2!p! B2 | d4 c2 | c4 c2 |!f!!>(! c4 B2!>)! | !fermata!G2 z2 |] %17
w: sicht. Ver-|lass mich|nicht, ver-|lass mich|nicht!|
w: bricht. *|||||
w: sicht. *|||||
V:4
!p! G,2 | !>!C,4 D,2 | E,4 B,,2 |!<(! C,3!<)! E,!>(! F,F,!>)! |!p!!>(! G,2!>)! G,2 z G, | %5
 !>!^F,4 A,2 | B,3!<(! B, A,!<)!G, |!mf! E,4 C,2 |!>(! G,2 G,2!>)! z2 |!f! B,,2 B,,2 B,,2 | %10
 C,4 C,2 | D,3 D,!>(! D,!p!D, | G,2!>)! z2!p! G,2 | B,,4 C,2 | F,4 F,2 |!f!!>(! G,4 G,,2!>)! | %16
 !fermata!C,2 z2 |] %17

